doc/UserGuideJa/fig/svg/fig-3-2.svg

<?xml version="1.0" encoding="UTF-8" standalone="no"?>
<!-- Created with Inkscape (http://www.inkscape.org/) -->

<svg
   xmlns:dc="http://purl.org/dc/elements/1.1/"
   xmlns:cc="http://creativecommons.org/ns#"
   xmlns:rdf="http://www.w3.org/1999/02/22-rdf-syntax-ns#"
   xmlns:svg="http://www.w3.org/2000/svg"
   xmlns="http://www.w3.org/2000/svg"
   xmlns:sodipodi="http://sodipodi.sourceforge.net/DTD/sodipodi-0.dtd"
   xmlns:inkscape="http://www.inkscape.org/namespaces/inkscape"
   id="svg8972"
   sodipodi:version="0.32"
   inkscape:version="0.48.2 r9819"
   width="120.54318"
   height="174.50549"
   xml:space="preserve"
   sodipodi:docname="fig-3-2.svg"
   version="1.0"
   inkscape:output_extension="org.inkscape.output.svg.inkscape"><metadata
     id="metadata8977"><rdf:RDF><cc:Work
         rdf:about=""><dc:format>image/svg+xml</dc:format><dc:type
           rdf:resource="http://purl.org/dc/dcmitype/StillImage" /></cc:Work></rdf:RDF></metadata><defs
     id="defs8975"><inkscape:perspective
   sodipodi:type="inkscape:persp3d"
   inkscape:vp_x="0 : 526.18109 : 1"
   inkscape:vp_y="0 : 1000 : 0"
   inkscape:vp_z="744.09448 : 526.18109 : 1"
   inkscape:persp3d-origin="372.04724 : 350.78739 : 1"
   id="perspective8979" /><clipPath
   clipPathUnits="userSpaceOnUse"
   id="clipPath8995"><path
     d="M 0,0 L 59,0 L 59,142 L 0,142 L 0,0 z"
     id="path8997" /></clipPath>







</defs><sodipodi:namedview
     inkscape:window-height="920"
     inkscape:window-width="1680"
     inkscape:pageshadow="2"
     inkscape:pageopacity="0.0"
     guidetolerance="10.0"
     gridtolerance="10.0"
     objecttolerance="10.0"
     borderopacity="1.0"
     bordercolor="#666666"
     pagecolor="#ffffff"
     id="base"
     showgrid="false"
     inkscape:zoom="4.022796"
     inkscape:cx="60.271591"
     inkscape:cy="87.252747"
     inkscape:window-x="0"
     inkscape:window-y="0"
     inkscape:current-layer="g8981"
     inkscape:window-maximized="0" /><g
     id="g8981"
     inkscape:groupmode="layer"
     inkscape:label="fig-3-2"
     transform="matrix(1.25,0,0,-1.25,-1.81125,175.85875)"><g
       id="g8991"><g
         id="g8993"
         clip-path="url(#clipPath8995)"><path
           inkscape:connector-curvature="0"
           d="m 38.533,63.92 2.835,2.834 8.503,0 2.836,-2.834"
           style="fill:none;stroke:#000000;stroke-width:0.472;stroke-linecap:butt;stroke-linejoin:miter;stroke-miterlimit:10;stroke-opacity:1;stroke-dasharray:none"
           id="path8999" /><path
           inkscape:connector-curvature="0"
           d="m 27.195,49.746 25.512,0 0,14.174 -25.512,0 0,-14.174 z"
           style="fill:none;stroke:#000000;stroke-width:0.472;stroke-linecap:butt;stroke-linejoin:miter;stroke-miterlimit:10;stroke-opacity:1;stroke-dasharray:none"
           id="path9001" /><path
           inkscape:connector-curvature="0"
           d="m 15.857,117.775 0,-59.525"
           style="fill:none;stroke:#000000;stroke-width:0.472;stroke-linecap:butt;stroke-linejoin:miter;stroke-miterlimit:10;stroke-opacity:1;stroke-dasharray:none"
           id="path9003" /><path
           inkscape:connector-curvature="0"
           d="m 15.857,80.927 5.669,0"
           style="fill:none;stroke:#000000;stroke-width:0.472;stroke-linecap:butt;stroke-linejoin:miter;stroke-miterlimit:10;stroke-opacity:1;stroke-dasharray:none"
           id="path9005" /><path
           inkscape:connector-curvature="0"
           d="m 15.857,103.603 5.669,0"
           style="fill:none;stroke:#000000;stroke-width:0.472;stroke-linecap:butt;stroke-linejoin:miter;stroke-miterlimit:10;stroke-opacity:1;stroke-dasharray:none"
           id="path9007" /><path
           inkscape:connector-curvature="0"
           d="m 15.857,58.25 5.669,0"
           style="fill:none;stroke:#000000;stroke-width:0.472;stroke-linecap:butt;stroke-linejoin:miter;stroke-miterlimit:10;stroke-opacity:1;stroke-dasharray:none"
           id="path9009" /><path
           inkscape:connector-curvature="0"
           d="m 41.368,44.078 0,-36.849"
           style="fill:none;stroke:#000000;stroke-width:0.472;stroke-linecap:butt;stroke-linejoin:miter;stroke-miterlimit:10;stroke-opacity:1;stroke-dasharray:none"
           id="path9011" /><path
           inkscape:connector-curvature="0"
           d="m 41.368,7.229 5.669,0"
           style="fill:none;stroke:#000000;stroke-width:0.472;stroke-linecap:butt;stroke-linejoin:miter;stroke-miterlimit:10;stroke-opacity:1;stroke-dasharray:none"
           id="path9013" /><path
           inkscape:connector-curvature="0"
           d="m 41.368,29.904 5.669,0"
           style="fill:none;stroke:#000000;stroke-width:0.472;stroke-linecap:butt;stroke-linejoin:miter;stroke-miterlimit:10;stroke-opacity:1;stroke-dasharray:none"
           id="path9015" /><path
           inkscape:connector-curvature="0"
           d="m 13.022,137.617 2.835,2.834 8.503,0 2.835,-2.834"
           style="fill:none;stroke:#000000;stroke-width:0.472;stroke-linecap:butt;stroke-linejoin:miter;stroke-miterlimit:10;stroke-opacity:1;stroke-dasharray:none"
           id="path9017" /><path
           inkscape:connector-curvature="0"
           d="m 1.685,123.445 25.51,0 0,14.172 -25.51,0 0,-14.172 z"
           style="fill:none;stroke:#000000;stroke-width:0.472;stroke-linecap:butt;stroke-linejoin:miter;stroke-miterlimit:10;stroke-opacity:1;stroke-dasharray:none"
           id="path9019" /></g></g><text
       transform="scale(1,-1)"
       id="text9021"
       x="31.9424"
       y="-125.2979"
       style="-inkscape-font-specification:LMSans12 Oblique;font-family:LMSans12;font-weight:normal;font-style:oblique;font-stretch:normal;font-variant:normal;font-size:11.95510025px;text-anchor:start;text-align:start;writing-mode:lr;line-height:125%"
       sodipodi:linespacing="125%"><tspan
         style="font-size:11.95510025px;font-variant:normal;font-weight:normal;font-stretch:normal;writing-mode:lr;fill:#000000;fill-opacity:1;fill-rule:nonzero;stroke:none;font-family:LMSans12;-inkscape-font-specification:LMSans12 Oblique;font-style:oblique;text-anchor:start;text-align:start;line-height:125%"
         x="31.9424 37.943859 43.144329 51.094471 58.829422 64.830879"
         y="-125.2979"
         sodipodi:role="line"
         id="tspan9023">newApp</tspan></text>
<text
       transform="scale(1,-1)"
       id="text9025"
       x="26.272499"
       y="-99.783203"
       style="-inkscape-font-specification:LMSans12 Oblique;font-family:LMSans12;font-weight:normal;font-style:oblique;font-stretch:normal;font-variant:normal;font-size:11.95510025px;text-anchor:start;text-align:start;writing-mode:lr;line-height:125%"
       sodipodi:linespacing="125%"><tspan
         style="font-size:11.95510025px;font-variant:normal;font-weight:normal;font-stretch:normal;writing-mode:lr;fill:#000000;fill-opacity:1;fill-rule:nonzero;stroke:none;font-family:LMSans12;-inkscape-font-specification:LMSans12 Oblique;font-style:oblique;text-anchor:start;text-align:start;line-height:125%"
         x="26.272499 32.27396 37.47443 45.424572 53.159519 59.16098 65.162445 68.41423"
         y="-99.783203"
         sodipodi:role="line"
         id="tspan9027">newApp.C</tspan></text>
<text
       transform="scale(1,-1)"
       id="text9029"
       x="26.272499"
       y="-77.102997"
       style="-inkscape-font-specification:LMSans12 Oblique;font-family:LMSans12;font-weight:normal;font-style:oblique;font-stretch:normal;font-variant:normal;font-size:11.95510025px;text-anchor:start;text-align:start;writing-mode:lr;line-height:125%"
       sodipodi:linespacing="125%"><tspan
         style="font-size:11.95510025px;font-variant:normal;font-weight:normal;font-stretch:normal;writing-mode:lr;fill:#000000;fill-opacity:1;fill-rule:nonzero;stroke:none;font-family:LMSans12;-inkscape-font-specification:LMSans12 Oblique;font-style:oblique;text-anchor:start;text-align:start;line-height:125%"
         x="26.272499 32.118546 36.350647 42.352108 47.552578 51.533627 59.734825 64.935295 70.542236 76.543694 81.744164 85.725212 88.976997"
         y="-77.102997"
         sodipodi:role="line"
         id="tspan9031">otherHeader.H</tspan></text>
<text
       transform="scale(1,-1)"
       id="text9033"
       x="57.4575"
       y="-51.587898"
       style="-inkscape-font-specification:LMSans12 Oblique;font-family:LMSans12;font-weight:normal;font-style:oblique;font-stretch:normal;font-variant:normal;font-size:11.95510025px;text-anchor:start;text-align:start;writing-mode:lr;line-height:125%"
       sodipodi:linespacing="125%"><tspan
         style="font-size:11.95510025px;font-variant:normal;font-weight:normal;font-stretch:normal;writing-mode:lr;fill:#000000;fill-opacity:1;fill-rule:nonzero;stroke:none;font-family:LMSans12;-inkscape-font-specification:LMSans12 Oblique;font-style:oblique;text-anchor:start;text-align:start;line-height:125%"
         x="57.4575 67.607376"
         y="-51.587898"
         sodipodi:role="line"
         id="tspan9035">Ma</tspan></text>
<text
       transform="scale(1,-1)"
       id="text9037"
       x="73.216301"
       y="-51.587898"
       style="-inkscape-font-specification:LMSans12 Oblique;font-family:LMSans12;font-weight:normal;font-style:oblique;font-stretch:normal;font-variant:normal;font-size:11.95510025px;text-anchor:start;text-align:start;writing-mode:lr;line-height:125%"
       sodipodi:linespacing="125%"><tspan
         style="font-size:11.95510025px;font-variant:normal;font-weight:normal;font-stretch:normal;writing-mode:lr;fill:#000000;fill-opacity:1;fill-rule:nonzero;stroke:none;font-family:LMSans12;-inkscape-font-specification:LMSans12 Oblique;font-style:oblique;text-anchor:start;text-align:start;line-height:125%"
         x="73.216301"
         y="-51.587898"
         id="tspan9039">k</tspan></text>
<text
       transform="scale(1,-1)"
       id="text9041"
       x="78.5737"
       y="-51.587898"
       style="-inkscape-font-specification:LMSans12 Oblique;font-family:LMSans12;font-weight:normal;font-style:oblique;font-stretch:normal;font-variant:normal;font-size:11.95510025px;text-anchor:start;text-align:start;writing-mode:lr;line-height:125%"
       sodipodi:linespacing="125%"><tspan
         style="font-size:11.95510025px;font-variant:normal;font-weight:normal;font-stretch:normal;writing-mode:lr;fill:#000000;fill-opacity:1;fill-rule:nonzero;stroke:none;font-family:LMSans12;-inkscape-font-specification:LMSans12 Oblique;font-style:oblique;text-anchor:start;text-align:start;line-height:125%"
         x="78.5737"
         y="-51.587898"
         id="tspan9043">e</tspan></text>
<text
       transform="scale(1,-1)"
       id="text9045"
       x="51.787601"
       y="-26.0728"
       style="-inkscape-font-specification:LMSans12 Oblique;font-family:LMSans12;font-weight:normal;font-style:oblique;font-stretch:normal;font-variant:normal;font-size:11.95510025px;text-anchor:start;text-align:start;writing-mode:lr;line-height:125%"
       sodipodi:linespacing="125%"><tspan
         style="font-size:11.95510025px;font-variant:normal;font-weight:normal;font-stretch:normal;writing-mode:lr;fill:#000000;fill-opacity:1;fill-rule:nonzero;stroke:none;font-family:LMSans12;-inkscape-font-specification:LMSans12 Oblique;font-style:oblique;text-anchor:start;text-align:start;line-height:125%"
         x="51.787601 58.040115 60.789791 65.990257"
         y="-26.0728"
         sodipodi:role="line"
         id="tspan9047">ﬁles</tspan></text>
<text
       transform="scale(1,-1)"
       id="text9049"
       x="51.787601"
       y="-3.4019001"
       style="-inkscape-font-specification:LMSans12 Oblique;font-family:LMSans12;font-weight:normal;font-style:oblique;font-stretch:normal;font-variant:normal;font-size:11.95510025px;text-anchor:start;text-align:start;writing-mode:lr;line-height:125%"
       sodipodi:linespacing="125%"><tspan
         style="font-size:11.95510025px;font-variant:normal;font-weight:normal;font-stretch:normal;writing-mode:lr;fill:#000000;fill-opacity:1;fill-rule:nonzero;stroke:none;font-family:LMSans12;-inkscape-font-specification:LMSans12 Oblique;font-style:oblique;text-anchor:start;text-align:start;line-height:125%"
         x="51.787601 57.633644 63.635105 67.86721 70.616882 76.474884 82.476341"
         y="-3.4019001"
         sodipodi:role="line"
         id="tspan9051">options</tspan></text>
</g></svg>

<?xml version="1.0" encoding="UTF-8" standalone="no"?>
<!-- Created with Inkscape (http://www.inkscape.org/) -->
<svg
   xmlns:dc="http://purl.org/dc/elements/1.1/"
   xmlns:cc="http://creativecommons.org/ns#"
   xmlns:rdf="http://www.w3.org/1999/02/22-rdf-syntax-ns#"
   xmlns:svg="http://www.w3.org/2000/svg"
   xmlns="http://www.w3.org/2000/svg"
   xmlns:sodipodi="http://sodipodi.sourceforge.net/DTD/sodipodi-0.dtd"
   xmlns:inkscape="http://www.inkscape.org/namespaces/inkscape"
   id="svg8972"
   sodipodi:version="0.32"
   inkscape:version="0.46"
   width="120.54318"
   height="174.50549"
   xml:space="preserve"
   sodipodi:docname="fig-3-2.svg"
   version="1.0"
   inkscape:output_extension="org.inkscape.output.svg.inkscape"><metadata
     id="metadata8977"><rdf:RDF><cc:Work
         rdf:about=""><dc:format>image/svg+xml</dc:format><dc:type
           rdf:resource="http://purl.org/dc/dcmitype/StillImage" /></cc:Work></rdf:RDF></metadata><defs
     id="defs8975"><inkscape:perspective
       sodipodi:type="inkscape:persp3d"
       inkscape:vp_x="0 : 526.18109 : 1"
       inkscape:vp_y="0 : 1000 : 0"
       inkscape:vp_z="744.09448 : 526.18109 : 1"
       inkscape:persp3d-origin="372.04724 : 350.78739 : 1"
       id="perspective8979" /><clipPath
       clipPathUnits="userSpaceOnUse"
       id="clipPath8995"><path
         d="M 0,0 L 59,0 L 59,142 L 0,142 L 0,0 z"
         id="path8997" /></clipPath></defs><sodipodi:namedview
     inkscape:window-height="722"
     inkscape:window-width="789"
     inkscape:pageshadow="2"
     inkscape:pageopacity="0.0"
     guidetolerance="10.0"
     gridtolerance="10.0"
     objecttolerance="10.0"
     borderopacity="1.0"
     bordercolor="#666666"
     pagecolor="#ffffff"
     id="base"
     showgrid="false"
     inkscape:zoom="2.7830986"
     inkscape:cx="36.875"
     inkscape:cy="88.75"
     inkscape:window-x="0"
     inkscape:window-y="25"
     inkscape:current-layer="g8981" /><g
     id="g8981"
     inkscape:groupmode="layer"
     inkscape:label="fig-3-2"
     transform="matrix(1.25,0,0,-1.25,-1.81125,175.85875)"><g
       clip-path="none"
       id="g8985"><g
         id="g8991"><g
           clip-path="url(#clipPath8995)"
           id="g8993"><path
             id="path8999"
             style="fill:none;stroke:#000000;stroke-width:0.472;stroke-linecap:butt;stroke-linejoin:miter;stroke-miterlimit:10;stroke-dasharray:none;stroke-opacity:1"
             d="M 38.533,63.92 L 41.368,66.754 L 49.871,66.754 L 52.707,63.92" /><path
             id="path9001"
             style="fill:none;stroke:#000000;stroke-width:0.472;stroke-linecap:butt;stroke-linejoin:miter;stroke-miterlimit:10;stroke-dasharray:none;stroke-opacity:1"
             d="M 27.195,49.746 L 52.707,49.746 L 52.707,63.92 L 27.195,63.92 L 27.195,49.746 z" /><path
             id="path9003"
             style="fill:none;stroke:#000000;stroke-width:0.472;stroke-linecap:butt;stroke-linejoin:miter;stroke-miterlimit:10;stroke-dasharray:none;stroke-opacity:1"
             d="M 15.857,117.775 L 15.857,58.25" /><path
             id="path9005"
             style="fill:none;stroke:#000000;stroke-width:0.472;stroke-linecap:butt;stroke-linejoin:miter;stroke-miterlimit:10;stroke-dasharray:none;stroke-opacity:1"
             d="M 15.857,80.927 L 21.526,80.927" /><path
             id="path9007"
             style="fill:none;stroke:#000000;stroke-width:0.472;stroke-linecap:butt;stroke-linejoin:miter;stroke-miterlimit:10;stroke-dasharray:none;stroke-opacity:1"
             d="M 15.857,103.603 L 21.526,103.603" /><path
             id="path9009"
             style="fill:none;stroke:#000000;stroke-width:0.472;stroke-linecap:butt;stroke-linejoin:miter;stroke-miterlimit:10;stroke-dasharray:none;stroke-opacity:1"
             d="M 15.857,58.25 L 21.526,58.25" /><path
             id="path9011"
             style="fill:none;stroke:#000000;stroke-width:0.472;stroke-linecap:butt;stroke-linejoin:miter;stroke-miterlimit:10;stroke-dasharray:none;stroke-opacity:1"
             d="M 41.368,44.078 L 41.368,7.229" /><path
             id="path9013"
             style="fill:none;stroke:#000000;stroke-width:0.472;stroke-linecap:butt;stroke-linejoin:miter;stroke-miterlimit:10;stroke-dasharray:none;stroke-opacity:1"
             d="M 41.368,7.229 L 47.037,7.229" /><path
             id="path9015"
             style="fill:none;stroke:#000000;stroke-width:0.472;stroke-linecap:butt;stroke-linejoin:miter;stroke-miterlimit:10;stroke-dasharray:none;stroke-opacity:1"
             d="M 41.368,29.904 L 47.037,29.904" /><path
             id="path9017"
             style="fill:none;stroke:#000000;stroke-width:0.472;stroke-linecap:butt;stroke-linejoin:miter;stroke-miterlimit:10;stroke-dasharray:none;stroke-opacity:1"
             d="M 13.022,137.617 L 15.857,140.451 L 24.36,140.451 L 27.195,137.617" /><path
             id="path9019"
             style="fill:none;stroke:#000000;stroke-width:0.472;stroke-linecap:butt;stroke-linejoin:miter;stroke-miterlimit:10;stroke-dasharray:none;stroke-opacity:1"
             d="M 1.685,123.445 L 27.195,123.445 L 27.195,137.617 L 1.685,137.617 L 1.685,123.445 z" /></g></g><text
         id="text9021"
         transform="matrix(1,0,0,-1,31.9424,125.2979)"><tspan
           id="tspan9023"
           sodipodi:role="line"
           y="0"
           x="0 6.0014601 11.201929 19.152071 26.88702 32.888481"
           style="font-size:11.95510006px;font-variant:normal;font-weight:normal;font-stretch:normal;writing-mode:lr-tb;fill:#000000;fill-opacity:1;fill-rule:nonzero;stroke:none;font-family:cmssi 12;-inkscape-font-specification:cmssi12">newApp</tspan></text>
<text
         id="text9025"
         transform="matrix(1,0,0,-1,26.2725,99.7832)"><tspan
           id="tspan9027"
           sodipodi:role="line"
           y="0"
           x="0 6.0014601 11.201929 19.152071 26.88702 32.888481 38.889942 42.141727"
           style="font-size:11.95510006px;font-variant:normal;font-weight:normal;font-stretch:normal;writing-mode:lr-tb;fill:#000000;fill-opacity:1;fill-rule:nonzero;stroke:none;font-family:cmssi 12;-inkscape-font-specification:cmssi12">newApp.C</tspan></text>
<text
         id="text9029"
         transform="matrix(1,0,0,-1,26.2725,77.103)"><tspan
           id="tspan9031"
           sodipodi:role="line"
           y="0"
           x="0 5.8460441 10.078149 16.079609 21.280079 25.261126 33.462326 38.662792 44.269733 50.271194 55.471664 59.452713 62.704498"
           style="font-size:11.95510006px;font-variant:normal;font-weight:normal;font-stretch:normal;writing-mode:lr-tb;fill:#000000;fill-opacity:1;fill-rule:nonzero;stroke:none;font-family:cmssi 12;-inkscape-font-specification:cmssi12">otherHeader.H</tspan></text>
<text
         id="text9033"
         transform="matrix(1,0,0,-1,57.4575,51.5879)"><tspan
           id="tspan9035"
           sodipodi:role="line"
           y="0"
           x="0 10.149879"
           style="font-size:11.95510006px;font-variant:normal;font-weight:normal;font-stretch:normal;writing-mode:lr-tb;fill:#000000;fill-opacity:1;fill-rule:nonzero;stroke:none;font-family:cmssi 12;-inkscape-font-specification:cmssi12">Ma</tspan></text>
<text
         id="text9037"
         transform="matrix(1,0,0,-1,73.2163,51.5879)"><tspan
           id="tspan9039"
           y="0"
           x="0"
           style="font-size:11.95510006px;font-variant:normal;font-weight:normal;font-stretch:normal;writing-mode:lr-tb;fill:#000000;fill-opacity:1;fill-rule:nonzero;stroke:none;font-family:cmssi 12;-inkscape-font-specification:cmssi12">k</tspan></text>
<text
         id="text9041"
         transform="matrix(1,0,0,-1,78.5737,51.5879)"><tspan
           id="tspan9043"
           y="0"
           x="0"
           style="font-size:11.95510006px;font-variant:normal;font-weight:normal;font-stretch:normal;writing-mode:lr-tb;fill:#000000;fill-opacity:1;fill-rule:nonzero;stroke:none;font-family:cmssi 12;-inkscape-font-specification:cmssi12">e</tspan></text>
<text
         id="text9045"
         transform="matrix(1,0,0,-1,51.7876,26.0728)"><tspan
           id="tspan9047"
           sodipodi:role="line"
           y="0"
           x="0 6.2525172 9.0021906 14.202659"
           style="font-size:11.95510006px;font-variant:normal;font-weight:normal;font-stretch:normal;writing-mode:lr-tb;fill:#000000;fill-opacity:1;fill-rule:nonzero;stroke:none;font-family:cmssi 12;-inkscape-font-specification:cmssi12">ﬁles</tspan></text>
<text
         id="text9049"
         transform="matrix(1,0,0,-1,51.7876,3.4019)"><tspan
           id="tspan9051"
           sodipodi:role="line"
           y="0"
           x="0 5.8460441 11.847504 16.079609 18.829283 24.687281 30.688742"
           style="font-size:11.95510006px;font-variant:normal;font-weight:normal;font-stretch:normal;writing-mode:lr-tb;fill:#000000;fill-opacity:1;fill-rule:nonzero;stroke:none;font-family:cmssi 12;-inkscape-font-specification:cmssi12">options</tspan></text>
</g></g></svg>
